assets/icons/projects/3.svg

<svg width="55" height="72" viewBox="0 0 55 72" fill="none" xmlns="http://www.w3.org/2000/svg">
<g id="Group 65974">
<g id="Layer 78">
<path id="Vector" d="M54.1599 38.7565C54.1599 38.1257 53.9093 37.5208 53.4633 37.0748C53.0173 36.6287 52.4123 36.3782 51.7816 36.3782C51.1508 36.3782 50.5459 36.6287 50.0999 37.0748C49.6539 37.5208 49.4033 38.1257 49.4033 38.7565C49.4033 44.6194 47.0742 50.2423 42.9285 54.388C38.7828 58.5337 33.1599 60.8628 27.297 60.8628C21.434 60.8628 15.8112 58.5337 11.6655 54.388C7.51973 50.2423 5.19068 44.6194 5.19068 38.7565C5.19068 38.1257 4.94011 37.5208 4.4941 37.0748C4.04808 36.6287 3.44315 36.3782 2.81238 36.3782C2.18162 36.3782 1.57669 36.6287 1.13067 37.0748C0.684653 37.5208 0.434082 38.1257 0.434082 38.7565C0.44827 45.4638 2.96675 51.9241 7.49597 56.8712C12.0252 61.8184 18.2387 64.8958 24.9187 65.5005V69.3652C24.9187 69.996 25.1693 70.6009 25.6153 71.0469C26.0613 71.4929 26.6662 71.7435 27.297 71.7435C27.9277 71.7435 28.5327 71.4929 28.9787 71.0469C29.4247 70.6009 29.6753 69.996 29.6753 69.3652V65.5005C36.3553 64.8958 42.5688 61.8184 47.098 56.8712C51.6272 51.9241 54.1457 45.4638 54.1599 38.7565Z" fill="#FCDAD8"/>
<path id="Vector_2" d="M27.2979 56.1051C31.8974 56.0988 36.3067 54.2689 39.5591 51.0165C42.8114 47.7642 44.6413 43.3549 44.6476 38.7554V17.4458C43.6963 -5.56422 10.8996 -5.57611 9.94824 17.4458V38.7554C9.95453 43.3549 11.7845 47.7642 15.0368 51.0165C18.2891 54.2689 22.6984 56.0988 27.2979 56.1051ZM14.7048 17.4458C15.3945 0.797737 39.2013 0.797737 39.891 17.4458V38.7554C39.891 42.0953 38.5643 45.2984 36.2026 47.6601C33.8409 50.0217 30.6378 51.3485 27.2979 51.3485C23.958 51.3485 20.7549 50.0217 18.3933 47.6601C16.0316 45.2984 14.7048 42.0953 14.7048 38.7554V17.4458Z" fill="#FCDAD8"/>
</g>
</g>
</svg>

<svg xmlns="http://www.w3.org/2000/svg" width="55" height="72" fill="#fcdad8" xmlns:v="https://vecta.io/nano"><path d="M54.16 38.757a2.38 2.38 0 0 0-2.378-2.378 2.38 2.38 0 0 0-2.378 2.378c0 5.863-2.329 11.486-6.475 15.631a22.11 22.11 0 0 1-15.631 6.475c-5.862 0-11.486-2.329-15.631-6.475a22.11 22.11 0 0 1-6.475-15.631 2.38 2.38 0 0 0-2.378-2.378 2.38 2.38 0 0 0-2.378 2.378 26.91 26.91 0 0 0 24.485 26.744v3.865a2.38 2.38 0 0 0 2.378 2.378 2.38 2.38 0 0 0 2.378-2.378v-3.865A26.91 26.91 0 0 0 54.16 38.757zM27.298 56.105a17.37 17.37 0 0 0 12.261-5.089c3.252-3.253 5.082-7.662 5.088-12.261v-21.31c-.951-23.01-33.748-23.022-34.699 0v21.31a17.37 17.37 0 0 0 5.089 12.261 17.38 17.38 0 0 0 12.261 5.089zM14.705 17.446c.69-16.648 24.497-16.648 25.186 0v21.31c0 3.34-1.327 6.543-3.688 8.905a12.59 12.59 0 0 1-8.905 3.688c-3.34 0-6.543-1.327-8.905-3.688a12.59 12.59 0 0 1-3.688-8.905v-21.31z"/></svg>
